X: 26474
T: Michael Albert's Birthday
R: jig
M: 6/8
K: Gmajor
DE|:GEE DEF|GEG c2B|ADD EDD|FDD dBA|
GEE DEF|GEG c2B|ADD DEF|1 GBA GDE:|2 GBA GcB||
|:ADD DED|ADD dcA|BGG G,GG|BGB GAB|
ADD DED|Adf gfe|dBG cAF|1 GED DFG:|2 GED DAB||
|:c3 B3|A2D DEF|GDG BcB|GDB dBG|
c3 B3|ADd fga|gec dBG|1 ADF GAB:|2 ADF G||

